!!!OTL: Susanna, willt du mit? / Andere Art.
!!!ARE: Europa, Mitteleuropa, Deutschland
!!!SCT: A0290B
!!!TXL: @@GMH
!!!YEM: Copyright 1995, estate of Helmut Schaffrath.
**kern	**text
*M4/4	*
*k[b-e-]	*
*g:	*
=1	=1
!LO:TX:a:t=G moll.	!
2ryy	.
4ryy	.
{4g	Du
=2	=2
4b-/	Sündrin,
4a	.
4b-/	wilt
4cc	du
=3	=3
2dd	mit?
4r}	.
{4g	Du
=4	=4
4b-/	Sün-
4a	-drin
4b-/	wilt
4cc	du
=5	=5
2dd	mit?
4r}	.
{4dd	Wir
=6	=6
4dd	wolln
4dd	ʒum
4dd	Her-
4dd	-ren
=7	=7
4cc	Chri-
4b-	-ſto
4a}	gahn,
{4g	vnd
=8	=8
4dd	fahn
4dd	ein
4dd	an-
4dd	-der
=9	=9
4cc	Le-
4b-	-ben
4a}	an,
{4b-/	drum
=10	=10
4a	ich
4g	dich
4g	freundlich
4f#	.
=11	=11
2.g}	bitt,
{4dd	drum
=12	=12
4b-	ich
4cc	dich
4a	freundlich
4a	.
=13	=13
1g/ll}	bitt.
==	==
!!!GTL: Tanz- und Kranzlieder
!!!AGN: Romanze, Ballade, Lied
!! Praetorius Mus. Sion. VII 1609 No. 75
!!!ONB: ESAC (Essen Associative Code) Database: ALTDEU
!!!AMT: simple quadruple
!!!AIN: vox
!!!EED: Helmut Schaffrath
!!!EEV: 1.0
!!!RDF**kern: l = terminal long
!!!URL-scan: https://rosdok.uni-rostock.de/mcrviewer/recordIdentifier/rosdok_ppn738218359/iview2/phys_0445.iview2?x=-495.6391625615763&y=4.752216753317043&scale=0.4629418472063854&rotation=0&layout=singlePageLayout&logicalDiv=log_0012
!!!ENC: Anna Maria Matuszewska
!!!EEV: 2024/12/03
*-	*-
